X: 18328
T: Humours Of Westmeath, The
R: slip jig
M: 9/8
K: Dmajor
|:d3 dAG FED|~d3 dAF ~G3|ABc dAG FGA|=cBc E2 F GFE:|
D2 g fdf ecA|d2 g fdf g3|d2 g fdf eAB|=cBc E2 F GFE|
D2 g fdf ecA|d2 g fdf g3|afd gec dAB|=cBc E2 F GFE||

